X: 1
T: Up Country
R: jig
M: 6/8
L: 1/8
K: Gmaj
|:B2c dcB|c2A f2g|agf e2d|g2B d2B|
G2B dcB|c2A f2g|fed cBA|1 G3 G3:|2 G3 Gga||
|:b2g dcB|cBA f2g|agf e2d g2B dga|
b2g dcB|cBA f2g|fed cBA|1 G3 Gga:|2 G3 G3||

